X: 14007
T: Frank Roche's
R: strathspey
M: 4/4
K: Gmajor
D<GG>B A>GE2|E<cc>e d>cB<g|B2B>G c>AB>G|1 E>A G/F/E/D/ G2 G>E:|2 E>A G/F/E/D/ G2 e>f|
|:g2d>g B<gd>e|g>ab<g e2e>f|(3gab (3agf (3efg (3dcB|1 (3cde (3def (3gdc (3BcA:|2 (3cde (3def g>dg<b||

